assets/1. F-P/Japanese prohibited button/Color/Japanese.Prohibited.Button-color.svg

<svg width="100%" height="100%" viewBox="0 0 32 32" fill="none" xmlns="http://www.w3.org/2000/svg">
<g filter="url(#filter0_ii_18590_2628)">
<rect x="2.09033" y="2.3125" width="27.875" height="27.875" rx="3.6" fill="url(#paint0_linear_18590_2628)"/>
<rect x="2.09033" y="2.3125" width="27.875" height="27.875" rx="3.6" fill="url(#paint1_radial_18590_2628)"/>
</g>
<g filter="url(#filter1_f_18590_2628)">
<path d="M28.2778 4.8125V27.6875" stroke="url(#paint2_linear_18590_2628)" stroke-width="1.5" stroke-linecap="round"/>
</g>
<g filter="url(#filter2_f_18590_2628)">
<path d="M5.5542 4.125H27.3354" stroke="url(#paint3_linear_18590_2628)" stroke-width="1.5" stroke-linecap="round"/>
</g>
<g filter="url(#filter3_f_18590_2628)">
<path d="M11.4448 5.75C10.8925 5.75 10.4448 6.19772 10.4448 6.75V7.65C10.4448 7.70523 10.4001 7.75 10.3448 7.75H8.44482C7.89254 7.75 7.44482 8.19772 7.44482 8.75C7.44482 9.30228 7.89254 9.75 8.44482 9.75H9.99956C10.0366 9.75 10.0559 9.79421 10.0306 9.82134V9.82134C9.64077 10.2388 9.173 10.7171 8.798 11.0394C8.09039 11.6477 7.74222 11.9277 6.97516 12.3705C6.95953 12.3795 6.95386 12.3996 6.96285 12.4152V12.4152V12.4152C6.95289 12.398 6.93081 12.392 6.91393 12.4026C6.813 12.4658 6.72409 12.5466 6.65147 12.6413C6.57153 12.7455 6.51289 12.8644 6.4789 12.9912C6.44491 13.1181 6.43624 13.2504 6.45338 13.3806C6.47052 13.5108 6.51314 13.6363 6.5788 13.75C6.64446 13.8638 6.73188 13.9634 6.83606 14.0434C6.94025 14.1233 7.05916 14.182 7.18601 14.216C7.31285 14.25 7.44515 14.2586 7.57535 14.2415C7.70368 14.2246 7.82749 14.1829 7.93992 14.1189C7.94073 14.1184 7.94176 14.1187 7.94223 14.1195V14.1195C7.9427 14.1203 7.94375 14.1206 7.94457 14.1201C8.88301 13.5807 9.33782 13.2128 10.1018 12.5561C10.1586 12.5072 10.2165 12.4561 10.275 12.4033C10.34 12.3446 10.4448 12.3902 10.4448 12.4777V14.75C10.4448 15.3023 10.8925 15.75 11.4448 15.75C11.9971 15.75 12.4448 15.3023 12.4448 14.75V11.885C12.4448 11.7948 12.5549 11.7507 12.6172 11.8159L13.8597 13.1181C14.2471 13.5242 14.893 13.5318 15.2899 13.1349C15.6738 12.751 15.6811 12.1307 15.3063 11.7379L13.5708 9.91903C13.5101 9.85539 13.5552 9.75 13.6432 9.75H14.4448C14.9971 9.75 15.4448 9.30228 15.4448 8.75C15.4448 8.19772 14.9971 7.75 14.4448 7.75H12.5448C12.4896 7.75 12.4448 7.70523 12.4448 7.65V6.75C12.4448 6.19772 11.9971 5.75 11.4448 5.75Z" fill="#EF2B54"/>
<path d="M8.44482 17.75C8.44482 17.1977 8.89254 16.75 9.44482 16.75H23.4448C23.9971 16.75 24.4448 17.1977 24.4448 17.75C24.4448 18.3023 23.9971 18.75 23.4448 18.75H9.44482C8.89254 18.75 8.44482 18.3023 8.44482 17.75Z" fill="#EF2B54"/>
<path d="M6.44482 20.75C6.44482 20.1977 6.89254 19.75 7.44482 19.75H25.4448C25.9971 19.75 26.4448 20.1977 26.4448 20.75C26.4448 21.3023 25.9971 21.75 25.4448 21.75H17.5448C17.4896 21.75 17.4448 21.7948 17.4448 21.85V25.0494C17.4448 25.0566 17.439 25.0625 17.4317 25.0625V25.0625C17.4253 25.0625 17.4198 25.0672 17.4188 25.0736C17.2641 26.0243 16.4392 26.75 15.4448 26.75H14.4448C13.8925 26.75 13.4448 26.3023 13.4448 25.75C13.4448 25.1977 13.8925 24.75 14.4448 24.75H14.9448C15.221 24.75 15.4448 24.5261 15.4448 24.25V21.85C15.4448 21.7948 15.4001 21.75 15.3448 21.75H7.44482C6.89254 21.75 6.44482 21.3023 6.44482 20.75Z" fill="#EF2B54"/>
<path d="M9.15193 25.4571C8.76141 25.0666 8.76141 24.4334 9.15193 24.0429L10.5661 22.6287C10.9567 22.2382 11.5898 22.2382 11.9804 22.6287C12.3709 23.0192 12.3709 23.6524 11.9804 24.0429L10.5661 25.4571C10.1756 25.8476 9.54246 25.8476 9.15193 25.4571Z" fill="#EF2B54"/>
<path d="M23.5661 24.1213L22.1519 22.7071C21.7614 22.3166 21.1282 22.3166 20.7377 22.7071C20.3472 23.0976 20.3472 23.7308 20.7377 24.1213L22.1519 25.5355C22.5425 25.9261 23.1756 25.9261 23.5661 25.5355C23.9567 25.145 23.9567 24.5118 23.5661 24.1213Z" fill="#EF2B54"/>
<path d="M20.4448 6.75C20.4448 6.19772 20.8925 5.75 21.4448 5.75C21.9971 5.75 22.4448 6.19772 22.4448 6.75V7.65C22.4448 7.70523 22.4896 7.75 22.5448 7.75H24.4448C24.9971 7.75 25.4448 8.19772 25.4448 8.75C25.4448 9.30228 24.9971 9.75 24.4448 9.75H22.6435C22.6064 9.75 22.5872 9.79421 22.6125 9.82134V9.82134C23.0023 10.2388 23.4701 10.7171 23.8451 11.0394C24.5527 11.6477 24.9009 11.9277 25.6679 12.3705C25.6835 12.3795 25.6892 12.3996 25.6802 12.4152V12.4152V12.4152C25.6902 12.398 25.7123 12.392 25.7291 12.4026C25.8301 12.4658 25.919 12.5466 25.9916 12.6413C26.0715 12.7455 26.1302 12.8644 26.1642 12.9912C26.1982 13.1181 26.2068 13.2504 26.1897 13.3806C26.1725 13.5108 26.1299 13.6363 26.0643 13.75C25.9986 13.8638 25.9112 13.9634 25.807 14.0434C25.7028 14.1233 25.5839 14.182 25.4571 14.216C25.3302 14.25 25.1979 14.2586 25.0677 14.2415C24.9394 14.2246 24.8156 14.1829 24.7031 14.1189C24.7023 14.1184 24.7013 14.1187 24.7008 14.1195V14.1195C24.7004 14.1203 24.6993 14.1206 24.6985 14.1201C23.7601 13.5807 23.3052 13.2128 22.5413 12.5561V12.5561C22.5036 12.5237 22.4448 12.5502 22.4448 12.5999V14.75C22.4448 15.3023 21.9971 15.75 21.4448 15.75C20.8925 15.75 20.4448 15.3023 20.4448 14.75V12.4777C20.4448 12.3902 20.34 12.3446 20.275 12.4033C20.2165 12.4561 20.1586 12.5072 20.1018 12.5561C19.3378 13.2128 18.883 13.5807 17.9446 14.1201C17.9438 14.1206 17.9427 14.1203 17.9422 14.1195V14.1195C17.9418 14.1187 17.9407 14.1184 17.9399 14.1189C17.8275 14.1829 17.7037 14.2246 17.5754 14.2415C17.4452 14.2586 17.3129 14.25 17.186 14.216C17.0592 14.182 16.9402 14.1233 16.8361 14.0434C16.7319 13.9634 16.6445 13.8638 16.5788 13.75C16.5131 13.6363 16.4705 13.5108 16.4534 13.3806C16.4362 13.2504 16.4449 13.1181 16.4789 12.9912C16.5129 12.8644 16.5715 12.7455 16.6515 12.6413C16.7241 12.5466 16.813 12.4658 16.9139 12.4026C16.9308 12.392 16.9529 12.398 16.9628 12.4152V12.4152V12.4152C16.9539 12.3996 16.9595 12.3795 16.9752 12.3705C17.7422 11.9277 18.0904 11.6477 18.798 11.0394C19.173 10.7171 19.6408 10.2388 20.0306 9.82134V9.82134C20.0559 9.79421 20.0366 9.75 19.9996 9.75H18.4448C17.8925 9.75 17.4448 9.30228 17.4448 8.75C17.4448 8.19772 17.8925 7.75 18.4448 7.75H20.3448C20.4001 7.75 20.4448 7.70523 20.4448 7.65V6.75Z" fill="#EF2B54"/>
</g>
<g filter="url(#filter4_ii_18590_2628)">
<path d="M11.4448 5.75C10.8925 5.75 10.4448 6.19772 10.4448 6.75V7.65C10.4448 7.70523 10.4001 7.75 10.3448 7.75H8.44482C7.89254 7.75 7.44482 8.19772 7.44482 8.75C7.44482 9.30228 7.89254 9.75 8.44482 9.75H9.99956C10.0366 9.75 10.0559 9.79421 10.0306 9.82134V9.82134C9.64077 10.2388 9.173 10.7171 8.798 11.0394C8.09039 11.6477 7.74222 11.9277 6.97516 12.3705C6.95953 12.3795 6.95386 12.3996 6.96285 12.4152V12.4152V12.4152C6.95289 12.398 6.93081 12.392 6.91393 12.4026C6.813 12.4658 6.72409 12.5466 6.65147 12.6413C6.57153 12.7455 6.51289 12.8644 6.4789 12.9912C6.44491 13.1181 6.43624 13.2504 6.45338 13.3806C6.47052 13.5108 6.51314 13.6363 6.5788 13.75C6.64446 13.8638 6.73188 13.9634 6.83606 14.0434C6.94025 14.1233 7.05916 14.182 7.18601 14.216C7.31285 14.25 7.44515 14.2586 7.57535 14.2415C7.70368 14.2246 7.82749 14.1829 7.93992 14.1189C7.94073 14.1184 7.94176 14.1187 7.94223 14.1195V14.1195C7.9427 14.1203 7.94375 14.1206 7.94457 14.1201C8.88301 13.5807 9.33782 13.2128 10.1018 12.5561C10.1586 12.5072 10.2165 12.4561 10.275 12.4033C10.34 12.3446 10.4448 12.3902 10.4448 12.4777V14.75C10.4448 15.3023 10.8925 15.75 11.4448 15.75C11.9971 15.75 12.4448 15.3023 12.4448 14.75V11.885C12.4448 11.7948 12.5549 11.7507 12.6172 11.8159L13.8597 13.1181C14.2471 13.5242 14.893 13.5318 15.2899 13.1349C15.6738 12.751 15.6811 12.1307 15.3063 11.7379L13.5708 9.91903C13.5101 9.85539 13.5552 9.75 13.6432 9.75H14.4448C14.9971 9.75 15.4448 9.30228 15.4448 8.75C15.4448 8.19772 14.9971 7.75 14.4448 7.75H12.5448C12.4896 7.75 12.4448 7.70523 12.4448 7.65V6.75C12.4448 6.19772 11.9971 5.75 11.4448 5.75Z" fill="#FCF2FF"/>
<path d="M8.44482 17.75C8.44482 17.1977 8.89254 16.75 9.44482 16.75H23.4448C23.9971 16.75 24.4448 17.1977 24.4448 17.75C24.4448 18.3023 23.9971 18.75 23.4448 18.75H9.44482C8.89254 18.75 8.44482 18.3023 8.44482 17.75Z" fill="#FCF2FF"/>
<path d="M6.44482 20.75C6.44482 20.1977 6.89254 19.75 7.44482 19.75H25.4448C25.9971 19.75 26.4448 20.1977 26.4448 20.75C26.4448 21.3023 25.9971 21.75 25.4448 21.75H17.5448C17.4896 21.75 17.4448 21.7948 17.4448 21.85V25.0494C17.4448 25.0566 17.439 25.0625 17.4317 25.0625V25.0625C17.4253 25.0625 17.4198 25.0672 17.4188 25.0736C17.2641 26.0243 16.4392 26.75 15.4448 26.75H14.4448C13.8925 26.75 13.4448 26.3023 13.4448 25.75C13.4448 25.1977 13.8925 24.75 14.4448 24.75H14.9448C15.221 24.75 15.4448 24.5261 15.4448 24.25V21.85C15.4448 21.7948 15.4001 21.75 15.3448 21.75H7.44482C6.89254 21.75 6.44482 21.3023 6.44482 20.75Z" fill="#FCF2FF"/>
<path d="M9.15193 25.4571C8.76141 25.0666 8.76141 24.4334 9.15193 24.0429L10.5661 22.6287C10.9567 22.2382 11.5898 22.2382 11.9804 22.6287C12.3709 23.0192 12.3709 23.6524 11.9804 24.0429L10.5661 25.4571C10.1756 25.8476 9.54246 25.8476 9.15193 25.4571Z" fill="#FCF2FF"/>
<path d="M23.5661 24.1213L22.1519 22.7071C21.7614 22.3166 21.1282 22.3166 20.7377 22.7071C20.3472 23.0976 20.3472 23.7308 20.7377 24.1213L22.1519 25.5355C22.5425 25.9261 23.1756 25.9261 23.5661 25.5355C23.9567 25.145 23.9567 24.5118 23.5661 24.1213Z" fill="#FCF2FF"/>
<path d="M20.4448 6.75C20.4448 6.19772 20.8925 5.75 21.4448 5.75C21.9971 5.75 22.4448 6.19772 22.4448 6.75V7.65C22.4448 7.70523 22.4896 7.75 22.5448 7.75H24.4448C24.9971 7.75 25.4448 8.19772 25.4448 8.75C25.4448 9.30228 24.9971 9.75 24.4448 9.75H22.6435C22.6064 9.75 22.5872 9.79421 22.6125 9.82134V9.82134C23.0023 10.2388 23.4701 10.7171 23.8451 11.0394C24.5527 11.6477 24.9009 11.9277 25.6679 12.3705C25.6835 12.3795 25.6892 12.3996 25.6802 12.4152V12.4152V12.4152C25.6902 12.398 25.7123 12.392 25.7291 12.4026C25.8301 12.4658 25.919 12.5466 25.9916 12.6413C26.0715 12.7455 26.1302 12.8644 26.1642 12.9912C26.1982 13.1181 26.2068 13.2504 26.1897 13.3806C26.1725 13.5108 26.1299 13.6363 26.0643 13.75C25.9986 13.8638 25.9112 13.9634 25.807 14.0434C25.7028 14.1233 25.5839 14.182 25.4571 14.216C25.3302 14.25 25.1979 14.2586 25.0677 14.2415C24.9394 14.2246 24.8156 14.1829 24.7031 14.1189C24.7023 14.1184 24.7013 14.1187 24.7008 14.1195V14.1195C24.7004 14.1203 24.6993 14.1206 24.6985 14.1201C23.7601 13.5807 23.3052 13.2128 22.5413 12.5561V12.5561C22.5036 12.5237 22.4448 12.5502 22.4448 12.5999V14.75C22.4448 15.3023 21.9971 15.75 21.4448 15.75C20.8925 15.75 20.4448 15.3023 20.4448 14.75V12.4777C20.4448 12.3902 20.34 12.3446 20.275 12.4033C20.2165 12.4561 20.1586 12.5072 20.1018 12.5561C19.3378 13.2128 18.883 13.5807 17.9446 14.1201C17.9438 14.1206 17.9427 14.1203 17.9422 14.1195V14.1195C17.9418 14.1187 17.9407 14.1184 17.9399 14.1189C17.8275 14.1829 17.7037 14.2246 17.5754 14.2415C17.4452 14.2586 17.3129 14.25 17.186 14.216C17.0592 14.182 16.9402 14.1233 16.8361 14.0434C16.7319 13.9634 16.6445 13.8638 16.5788 13.75C16.5131 13.6363 16.4705 13.5108 16.4534 13.3806C16.4362 13.2504 16.4449 13.1181 16.4789 12.9912C16.5129 12.8644 16.5715 12.7455 16.6515 12.6413C16.7241 12.5466 16.813 12.4658 16.9139 12.4026C16.9308 12.392 16.9529 12.398 16.9628 12.4152V12.4152V12.4152C16.9539 12.3996 16.9595 12.3795 16.9752 12.3705C17.7422 11.9277 18.0904 11.6477 18.798 11.0394C19.173 10.7171 19.6408 10.2388 20.0306 9.82134V9.82134C20.0559 9.79421 20.0366 9.75 19.9996 9.75H18.4448C17.8925 9.75 17.4448 9.30228 17.4448 8.75C17.4448 8.19772 17.8925 7.75 18.4448 7.75H20.3448C20.4001 7.75 20.4448 7.70523 20.4448 7.65V6.75Z" fill="#FCF2FF"/>
</g>
<defs>
<filter id="filter0_ii_18590_2628" x="2.09033" y="1.3125" width="28.875" height="28.875" filterUnits="userSpaceOnUse" color-interpolation-filters="sRGB">
<feFlood flood-opacity="0" result="BackgroundImageFix"/>
<feBlend mode="normal" in="SourceGraphic" in2="BackgroundImageFix" result="shape"/>
<feColorMatrix in="SourceAlpha" type="matrix" values="0 0 0 0 0 0 0 0 0 0 0 0 0 0 0 0 0 0 127 0" result="hardAlpha"/>
<feOffset dx="1" dy="-1"/>
<feGaussianBlur stdDeviation="1.5"/>
<feComposite in2="hardAlpha" operator="arithmetic" k2="-1" k3="1"/>
<feColorMatrix type="matrix" values="0 0 0 0 0.901961 0 0 0 0 0.133333 0 0 0 0 0.337255 0 0 0 1 0"/>
<feBlend mode="normal" in2="shape" result="effect1_innerShadow_18590_2628"/>
<feColorMatrix in="SourceAlpha" type="matrix" values="0 0 0 0 0 0 0 0 0 0 0 0 0 0 0 0 0 0 127 0" result="hardAlpha"/>
<feOffset dy="-1"/>
<feGaussianBlur stdDeviation="1.5"/>
<feComposite in2="hardAlpha" operator="arithmetic" k2="-1" k3="1"/>
<feColorMatrix type="matrix" values="0 0 0 0 0.85098 0 0 0 0 0.168627 0 0 0 0 0.231373 0 0 0 1 0"/>
<feBlend mode="normal" in2="effect1_innerShadow_18590_2628" result="effect2_innerShadow_18590_2628"/>
</filter>
<filter id="filter1_f_18590_2628" x="25.5278" y="2.0625" width="5.5" height="28.375" filterUnits="userSpaceOnUse" color-interpolation-filters="sRGB">
<feFlood flood-opacity="0" result="BackgroundImageFix"/>
<feBlend mode="normal" in="SourceGraphic" in2="BackgroundImageFix" result="shape"/>
<feGaussianBlur stdDeviation="1" result="effect1_foregroundBlur_18590_2628"/>
</filter>
<filter id="filter2_f_18590_2628" x="2.8042" y="1.375" width="27.2812" height="5.5" filterUnits="userSpaceOnUse" color-interpolation-filters="sRGB">
<feFlood flood-opacity="0" result="BackgroundImageFix"/>
<feBlend mode="normal" in="SourceGraphic" in2="BackgroundImageFix" result="shape"/>
<feGaussianBlur stdDeviation="1" result="effect1_foregroundBlur_18590_2628"/>
</filter>
<filter id="filter3_f_18590_2628" x="5.44482" y="4.75" width="22" height="23" filterUnits="userSpaceOnUse" color-interpolation-filters="sRGB">
<feFlood flood-opacity="0" result="BackgroundImageFix"/>
<feBlend mode="normal" in="SourceGraphic" in2="BackgroundImageFix" result="shape"/>
<feGaussianBlur stdDeviation="0.5" result="effect1_foregroundBlur_18590_2628"/>
</filter>
<filter id="filter4_ii_18590_2628" x="6.04482" y="5.35" width="20.8" height="21.8" filterUnits="userSpaceOnUse" color-interpolation-filters="sRGB">
<feFlood flood-opacity="0" result="BackgroundImageFix"/>
<feBlend mode="normal" in="SourceGraphic" in2="BackgroundImageFix" result="shape"/>
<feColorMatrix in="SourceAlpha" type="matrix" values="0 0 0 0 0 0 0 0 0 0 0 0 0 0 0 0 0 0 127 0" result="hardAlpha"/>
<feOffset dx="-0.4" dy="0.4"/>
<feGaussianBlur stdDeviation="0.375"/>
<feComposite in2="hardAlpha" operator="arithmetic" k2="-1" k3="1"/>
<feColorMatrix type="matrix" values="0 0 0 0 0.913725 0 0 0 0 0.886275 0 0 0 0 0.968627 0 0 0 1 0"/>
<feBlend mode="normal" in2="shape" result="effect1_innerShadow_18590_2628"/>
<feColorMatrix in="SourceAlpha" type="matrix" values="0 0 0 0 0 0 0 0 0 0 0 0 0 0 0 0 0 0 127 0" result="hardAlpha"/>
<feOffset dx="0.4" dy="-0.4"/>
<feGaussianBlur stdDeviation="0.2"/>
<feComposite in2="hardAlpha" operator="arithmetic" k2="-1" k3="1"/>
<feColorMatrix type="matrix" values="0 0 0 0 1 0 0 0 0 0.988235 0 0 0 0 1 0 0 0 1 0"/>
<feBlend mode="normal" in2="effect1_innerShadow_18590_2628" result="effect2_innerShadow_18590_2628"/>
</filter>
<linearGradient id="paint0_linear_18590_2628" x1="16.0278" y1="5.88701" x2="16.0278" y2="39.1397" gradientUnits="userSpaceOnUse">
<stop stop-color="#FF4D91"/>
<stop offset="1" stop-color="#F34A5F"/>
</linearGradient>
<radialGradient id="paint1_radial_18590_2628" cx="0" cy="0" r="1" gradientUnits="userSpaceOnUse" gradientTransform="translate(27.7466 4.40625) rotate(136.771) scale(2.14444 2.50466)">
<stop stop-color="#FF77B1"/>
<stop offset="1" stop-color="#FF77B1" stop-opacity="0"/>
</radialGradient>
<linearGradient id="paint2_linear_18590_2628" x1="28.7778" y1="4.8125" x2="28.7778" y2="27.6875" gradientUnits="userSpaceOnUse">
<stop stop-color="#FF66A5"/>
<stop offset="1" stop-color="#FF5B6B"/>
</linearGradient>
<linearGradient id="paint3_linear_18590_2628" x1="28.4917" y1="4.37502" x2="2.96045" y2="4.37502" gradientUnits="userSpaceOnUse">
<stop stop-color="#FF60A3"/>
<stop offset="1" stop-color="#FF5495"/>
</linearGradient>
</defs>
</svg>

<svg width="100%" height="100%" viewBox="0 0 32 32" xmlns="http://www.w3.org/2000/svg"><g filter="url(#a)"><rect width="27.875" height="27.875" x="2.09" y="2.313" fill="url(#b)" rx="3.6"/><rect width="27.875" height="27.875" x="2.09" y="2.313" fill="url(#c)" rx="3.6"/></g><g filter="url(#d)"><path stroke="url(#e)" stroke-linecap="round" stroke-width="1.5" d="M28.278 4.813v22.875"/></g><g filter="url(#f)"><path stroke="url(#g)" stroke-linecap="round" stroke-width="1.5" d="M5.554 4.125h21.781"/></g><g fill="#EF2B54" filter="url(#h)"><path d="M11.445 5.75a1 1 0 0 0-1 1v.9a.1.1 0 0 1-.1.1h-1.9a1 1 0 0 0 0 2H10c.037 0 .056.044.03.071-.39.418-.857.896-1.232 1.218-.708.609-1.056.889-1.823 1.332a.033.033 0 0 0-.012.044.035.035 0 0 0-.05-.012.999.999 0 0 0 .273 1.813 1 1 0 0 0 .756-.096h.003c.938-.54 1.393-.907 2.157-1.564q.085-.073.173-.153a.102.102 0 0 1 .17.075v2.272a1 1 0 1 0 2 0v-2.865a.1.1 0 0 1 .172-.07l1.243 1.303a1 1 0 0 0 1.446-1.38l-1.735-1.819a.1.1 0 0 1 .072-.169h.802a1 1 0 1 0 0-2h-1.9a.1.1 0 0 1-.1-.1v-.9a1 1 0 0 0-1-1M8.445 17.75a1 1 0 0 1 1-1h14a1 1 0 1 1 0 2h-14a1 1 0 0 1-1-1M6.445 20.75a1 1 0 0 1 1-1h18a1 1 0 1 1 0 2h-7.9a.1.1 0 0 0-.1.1v3.2a.013.013 0 0 1-.013.012.013.013 0 0 0-.013.012 2 2 0 0 1-1.974 1.676h-1a1 1 0 1 1 0-2h.5a.5.5 0 0 0 .5-.5v-2.4a.1.1 0 0 0-.1-.1h-7.9a1 1 0 0 1-1-1"/><path d="M9.152 25.457a1 1 0 0 1 0-1.414l1.414-1.414a1 1 0 0 1 1.414 1.414l-1.414 1.414a1 1 0 0 1-1.414 0M23.566 24.121l-1.414-1.414a1 1 0 0 0-1.414 1.414l1.414 1.415a1 1 0 1 0 1.414-1.415M20.445 6.75a1 1 0 1 1 2 0v.9a.1.1 0 0 0 .1.1h1.9a1 1 0 1 1 0 2h-1.802a.042.042 0 0 0-.03.071c.39.418.857.896 1.232 1.218.708.609 1.056.889 1.823 1.332.015.008.021.029.012.044a.035.035 0 0 1 .05-.012.997.997 0 0 1 .334 1.347 1 1 0 0 1-1.363.37h-.003c-.938-.54-1.393-.907-2.157-1.564a.058.058 0 0 0-.096.044v2.15a1 1 0 1 1-2 0v-2.272a.102.102 0 0 0-.17-.075l-.173.153c-.764.657-1.219 1.025-2.157 1.564h-.003q0-.002-.002-.001a1.001 1.001 0 0 1-1.026-1.716.035.035 0 0 1 .049.012.033.033 0 0 1 .012-.044c.767-.443 1.115-.723 1.823-1.332.375-.322.843-.8 1.233-1.218A.042.042 0 0 0 20 9.75h-1.555a1 1 0 1 1 0-2h1.9a.1.1 0 0 0 .1-.1z"/></g><g fill="#FCF2FF" filter="url(#i)"><path d="M11.445 5.75a1 1 0 0 0-1 1v.9a.1.1 0 0 1-.1.1h-1.9a1 1 0 0 0 0 2H10c.037 0 .056.044.03.071-.39.418-.857.896-1.232 1.218-.708.609-1.056.889-1.823 1.332a.033.033 0 0 0-.012.044.035.035 0 0 0-.05-.012.999.999 0 0 0 .273 1.813 1 1 0 0 0 .756-.096h.003c.938-.54 1.393-.907 2.157-1.564q.085-.073.173-.153a.102.102 0 0 1 .17.075v2.272a1 1 0 1 0 2 0v-2.865a.1.1 0 0 1 .172-.07l1.243 1.303a1 1 0 0 0 1.446-1.38l-1.735-1.819a.1.1 0 0 1 .072-.169h.802a1 1 0 1 0 0-2h-1.9a.1.1 0 0 1-.1-.1v-.9a1 1 0 0 0-1-1M8.445 17.75a1 1 0 0 1 1-1h14a1 1 0 1 1 0 2h-14a1 1 0 0 1-1-1M6.445 20.75a1 1 0 0 1 1-1h18a1 1 0 1 1 0 2h-7.9a.1.1 0 0 0-.1.1v3.2a.013.013 0 0 1-.013.012.013.013 0 0 0-.013.012 2 2 0 0 1-1.974 1.676h-1a1 1 0 1 1 0-2h.5a.5.5 0 0 0 .5-.5v-2.4a.1.1 0 0 0-.1-.1h-7.9a1 1 0 0 1-1-1"/><path d="M9.152 25.457a1 1 0 0 1 0-1.414l1.414-1.414a1 1 0 0 1 1.414 1.414l-1.414 1.414a1 1 0 0 1-1.414 0M23.566 24.121l-1.414-1.414a1 1 0 0 0-1.414 1.414l1.414 1.415a1 1 0 1 0 1.414-1.415M20.445 6.75a1 1 0 1 1 2 0v.9a.1.1 0 0 0 .1.1h1.9a1 1 0 1 1 0 2h-1.802a.042.042 0 0 0-.03.071c.39.418.857.896 1.232 1.218.708.609 1.056.889 1.823 1.332.015.008.021.029.012.044a.035.035 0 0 1 .05-.012.997.997 0 0 1 .334 1.347 1 1 0 0 1-1.363.37h-.003c-.938-.54-1.393-.907-2.157-1.564a.058.058 0 0 0-.096.044v2.15a1 1 0 1 1-2 0v-2.272a.102.102 0 0 0-.17-.075l-.173.153c-.764.657-1.219 1.025-2.157 1.564h-.003q0-.002-.002-.001a1.001 1.001 0 0 1-1.026-1.716.035.035 0 0 1 .049.012.033.033 0 0 1 .012-.044c.767-.443 1.115-.723 1.823-1.332.375-.322.843-.8 1.233-1.218A.042.042 0 0 0 20 9.75h-1.555a1 1 0 1 1 0-2h1.9a.1.1 0 0 0 .1-.1z"/></g><defs><filter id="a" width="28.875" height="28.875" x="2.09" y="1.313" color-interpolation-filters="sRGB" filterUnits="userSpaceOnUse"><feFlood flood-opacity="0" result="BackgroundImageFix"/><feBlend in="SourceGraphic" in2="BackgroundImageFix" result="shape"/><feColorMatrix in="SourceAlpha" result="hardAlpha" values="0 0 0 0 0 0 0 0 0 0 0 0 0 0 0 0 0 0 127 0"/><feOffset dx="1" dy="-1"/><feGaussianBlur stdDeviation="1.5"/><feComposite in2="hardAlpha" k2="-1" k3="1" operator="arithmetic"/><feColorMatrix values="0 0 0 0 0.901961 0 0 0 0 0.133333 0 0 0 0 0.337255 0 0 0 1 0"/><feBlend in2="shape" result="effect1_innerShadow_18590_2628"/><feColorMatrix in="SourceAlpha" result="hardAlpha" values="0 0 0 0 0 0 0 0 0 0 0 0 0 0 0 0 0 0 127 0"/><feOffset dy="-1"/><feGaussianBlur stdDeviation="1.5"/><feComposite in2="hardAlpha" k2="-1" k3="1" operator="arithmetic"/><feColorMatrix values="0 0 0 0 0.85098 0 0 0 0 0.168627 0 0 0 0 0.231373 0 0 0 1 0"/><feBlend in2="effect1_innerShadow_18590_2628" result="effect2_innerShadow_18590_2628"/></filter><filter id="d" width="5.5" height="28.375" x="25.528" y="2.063" color-interpolation-filters="sRGB" filterUnits="userSpaceOnUse"><feFlood flood-opacity="0" result="BackgroundImageFix"/><feBlend in="SourceGraphic" in2="BackgroundImageFix" result="shape"/><feGaussianBlur result="effect1_foregroundBlur_18590_2628" stdDeviation="1"/></filter><filter id="f" width="27.281" height="5.5" x="2.804" y="1.375" color-interpolation-filters="sRGB" filterUnits="userSpaceOnUse"><feFlood flood-opacity="0" result="BackgroundImageFix"/><feBlend in="SourceGraphic" in2="BackgroundImageFix" result="shape"/><feGaussianBlur result="effect1_foregroundBlur_18590_2628" stdDeviation="1"/></filter><filter id="h" width="22" height="23" x="5.445" y="4.75" color-interpolation-filters="sRGB" filterUnits="userSpaceOnUse"><feFlood flood-opacity="0" result="BackgroundImageFix"/><feBlend in="SourceGraphic" in2="BackgroundImageFix" result="shape"/><feGaussianBlur result="effect1_foregroundBlur_18590_2628" stdDeviation=".5"/></filter><filter id="i" width="20.8" height="21.8" x="6.045" y="5.35" color-interpolation-filters="sRGB" filterUnits="userSpaceOnUse"><feFlood flood-opacity="0" result="BackgroundImageFix"/><feBlend in="SourceGraphic" in2="BackgroundImageFix" result="shape"/><feColorMatrix in="SourceAlpha" result="hardAlpha" values="0 0 0 0 0 0 0 0 0 0 0 0 0 0 0 0 0 0 127 0"/><feOffset dx="-.4" dy=".4"/><feGaussianBlur stdDeviation=".375"/><feComposite in2="hardAlpha" k2="-1" k3="1" operator="arithmetic"/><feColorMatrix values="0 0 0 0 0.913725 0 0 0 0 0.886275 0 0 0 0 0.968627 0 0 0 1 0"/><feBlend in2="shape" result="effect1_innerShadow_18590_2628"/><feColorMatrix in="SourceAlpha" result="hardAlpha" values="0 0 0 0 0 0 0 0 0 0 0 0 0 0 0 0 0 0 127 0"/><feOffset dx=".4" dy="-.4"/><feGaussianBlur stdDeviation=".2"/><feComposite in2="hardAlpha" k2="-1" k3="1" operator="arithmetic"/><feColorMatrix values="0 0 0 0 1 0 0 0 0 0.988235 0 0 0 0 1 0 0 0 1 0"/><feBlend in2="effect1_innerShadow_18590_2628" result="effect2_innerShadow_18590_2628"/></filter><linearGradient id="b" x1="16.028" x2="16.028" y1="5.887" y2="39.14" gradientUnits="userSpaceOnUse"><stop stop-color="#FF4D91"/><stop offset="1" stop-color="#F34A5F"/></linearGradient><linearGradient id="e" x1="28.778" x2="28.778" y1="4.813" y2="27.688" gradientUnits="userSpaceOnUse"><stop stop-color="#FF66A5"/><stop offset="1" stop-color="#FF5B6B"/></linearGradient><linearGradient id="g" x1="28.492" x2="2.96" y1="4.375" y2="4.375" gradientUnits="userSpaceOnUse"><stop stop-color="#FF60A3"/><stop offset="1" stop-color="#FF5495"/></linearGradient><radialGradient id="c" cx="0" cy="0" r="1" gradientTransform="matrix(-1.56249 1.46876 -1.71548 -1.82495 27.747 4.406)" gradientUnits="userSpaceOnUse"><stop stop-color="#FF77B1"/><stop offset="1" stop-color="#FF77B1" stop-opacity="0"/></radialGradient></defs></svg>
